public/avatar/shoe/82.svg

<svg xmlns:xlink="http://www.w3.org/1999/xlink" height="38.3" width="36.05" xmlns="http://www.w3.org/2000/svg"><use height="20.55" transform="translate(15.15 10.4)" width="15.2" xlink:href="#a"/><defs><g id="a" fill-rule="evenodd"><path d="m4.25-1.8.9 2.55.75 2.85q1.1 5.95-.5 8.75l1.15.9-.7.55q-1.5 1.35-3.95 2-4.95 1.2-9.85-2.05l-.7-.55.9-1.1q-.6-.85-.65-1.6-.35-1.8 1.6-5.35 1.15-2 1.35-3.1v-.5l-.05-.1-.05-1.9q.15-2.2 1.75-3.2 1.95-1.2 5.25-.55Q3-4 3.95-2.45l.3.65" fill="#4b0000" transform="translate(8.65 4.45)"/><path d="M3.05-2.1Q-.5.4-4.65-.35q.45-4.1 5.85-3.05 1.2.15 1.85 1.3" fill="#6d2b00" transform="translate(8.65 4.45)"/><path d="M3.4-1.55Q.15 2-4.6 2.15l.1-.7-.15-1.8Q-.5.4 3.05-2.1l.35.55" fill="#b13a00" transform="translate(8.65 4.45)"/><path d="M4.1 12.7q-1.6 1.65-5.2 1.5-3.4-.1-4.75-1.2l-.15-.2 2.35-5.35Q-2.4 4.3-2.5 1.8q3.45-.75 5.9-3.35L4.3 1q.85 1.95 1.05 5.65.25 4.55-1.25 6.05" fill="#ff4900" transform="translate(8.65 4.45)"/><path d="m-4.6 2.15 2.1-.35q.1 2.5-1.15 5.65L-6 12.8q-2.45-2.15-1-5.35 2.25-3.6 2.4-5.3" fill="#de3800" transform="translate(8.65 4.45)"/><path d="M-5.85 8.9Q-4 9.55-4.5 10q-.55.55-1.6.3-1-.3.25-1.4m8.8.15q1.8.65 1.3 1.15-.5.5-1.55.25t.25-1.4" fill="#ff0" transform="translate(8.65 4.45)"/><path d="M3.2 7.8q-1.4 2.25-5.7 1.4.5-3.05-.25-7.15l5.5.4q.4.45.65 2.4.25 2.05-.2 2.95" fill="#b65d26" transform="translate(8.65 4.45)"/><path d="M-5.15 7.6q-.15-1.25.95-3.4.9-1.85 1.4-2.15h.05q.75 4.1.25 7.15-2.45-.5-2.65-1.6" fill="#7c4100" transform="translate(8.65 4.45)"/><path d="M-2.15 9.7q1.6.1 1.7 1.3.05.9-.65 1.7l-2 .15q-1.4-.55-1.25-1.8.2-1.1 1.2-1.3l1-.05" fill="#acde00" transform="translate(8.65 4.45)"/><path d="M-3.9 10.95q-.2-.7 1.1-.95 1.2-.15 1.45.55.1.8-1.2.9-1.25.25-1.35-.5" fill="#cfff00" transform="translate(8.65 4.45)"/><path d="M1.6 15.05q-4.45 1.05-8.95-1.95l.75-.85q6.3 4.25 10.9.25l.85.75q-1.35 1.2-3.55 1.8" fill="#ff0" transform="translate(8.65 4.45)"/></g></defs></svg>

<?xml version="1.0" encoding="UTF-8" standalone="no"?>
<svg xmlns:xlink="http://www.w3.org/1999/xlink" height="38.3px" width="36.05px" xmlns="http://www.w3.org/2000/svg">
  <g transform="matrix(1.0, 0.0, 0.0, 1.0, 23.8, 14.85)">
    <use height="20.55" transform="matrix(1.0, 0.0, 0.0, 1.0, -8.65, -4.45)" width="15.2" xlink:href="#shape0"/>
  </g>
  <defs>
    <g id="shape0" transform="matrix(1.0, 0.0, 0.0, 1.0, 8.65, 4.45)">
      <path d="M4.25 -1.8 L5.15 0.75 5.9 3.6 Q7.0 9.55 5.4 12.35 L6.55 13.25 5.85 13.8 Q4.35 15.15 1.9 15.8 -3.05 17.0 -7.95 13.75 L-8.65 13.2 -7.75 12.1 Q-8.35 11.25 -8.4 10.5 -8.75 8.7 -6.8 5.15 -5.65 3.15 -5.45 2.05 L-5.45 1.55 -5.5 1.45 -5.55 -0.45 Q-5.4 -2.65 -3.8 -3.65 -1.85 -4.85 1.45 -4.2 3.0 -4.0 3.95 -2.45 L4.25 -1.8" fill="#4b0000" fill-rule="evenodd" stroke="none"/>
      <path d="M3.05 -2.1 Q-0.5 0.4 -4.65 -0.35 -4.2 -4.45 1.2 -3.4 2.4 -3.25 3.05 -2.1" fill="#6d2b00" fill-rule="evenodd" stroke="none"/>
      <path d="M3.4 -1.55 Q0.15 2.0 -4.6 2.15 L-4.5 1.45 -4.65 -0.35 Q-0.5 0.4 3.05 -2.1 L3.4 -1.55" fill="#b13a00" fill-rule="evenodd" stroke="none"/>
      <path d="M4.1 12.7 Q2.5 14.35 -1.1 14.2 -4.5 14.1 -5.85 13.0 L-6.0 12.8 -3.65 7.45 Q-2.4 4.3 -2.5 1.8 0.95 1.05 3.4 -1.55 L4.3 1.0 Q5.15 2.95 5.35 6.65 5.6 11.2 4.1 12.7" fill="#ff4900" fill-rule="evenodd" stroke="none"/>
      <path d="M-4.6 2.15 L-2.5 1.8 Q-2.4 4.3 -3.65 7.45 L-6.0 12.8 Q-8.45 10.65 -7.0 7.45 -4.75 3.85 -4.6 2.15" fill="#de3800" fill-rule="evenodd" stroke="none"/>
      <path d="M-5.85 8.9 Q-4.0 9.55 -4.5 10.0 -5.05 10.55 -6.1 10.3 -7.1 10.0 -5.85 8.9" fill="#ffff00" fill-rule="evenodd" stroke="none"/>
      <path d="M2.95 9.05 Q4.75 9.7 4.25 10.2 3.75 10.7 2.7 10.45 1.65 10.2 2.95 9.05" fill="#ffff00" fill-rule="evenodd" stroke="none"/>
      <path d="M3.2 7.8 Q1.8 10.05 -2.5 9.2 -2.0 6.15 -2.75 2.05 L2.75 2.45 Q3.15 2.9 3.4 4.85 3.65 6.9 3.2 7.8" fill="#b65d26" fill-rule="evenodd" stroke="none"/>
      <path d="M-5.15 7.6 Q-5.3 6.35 -4.2 4.2 -3.3 2.35 -2.8 2.05 L-2.75 2.05 Q-2.0 6.15 -2.5 9.2 -4.95 8.7 -5.15 7.6" fill="#7c4100" fill-rule="evenodd" stroke="none"/>
      <path d="M-2.15 9.7 Q-0.55 9.8 -0.45 11.0 -0.4 11.9 -1.1 12.7 L-3.1 12.85 Q-4.5 12.3 -4.35 11.05 -4.15 9.95 -3.15 9.75 L-2.15 9.7" fill="#acde00" fill-rule="evenodd" stroke="none"/>
      <path d="M-3.9 10.95 Q-4.1 10.25 -2.8 10.0 -1.6 9.85 -1.35 10.55 -1.25 11.35 -2.55 11.45 -3.8 11.7 -3.9 10.95" fill="#cfff00" fill-rule="evenodd" stroke="none"/>
      <path d="M1.6 15.05 Q-2.85 16.1 -7.35 13.1 L-6.6 12.25 Q-0.3 16.5 4.3 12.5 L5.15 13.25 Q3.8 14.45 1.6 15.05" fill="#ffff00" fill-rule="evenodd" stroke="none"/>
    </g>
  </defs>
</svg>
